X:1
T:443 - Eis os MilhÃµes
T:Letra: James McGranahan (1840-1907)
T:Trad.: Henry Maxwell Wright (1859-1931)
T:MÃºsica: James McGranahan (1840-1907)
M:4/4
L:1/8
Q:1/4=110
K:Gmaj
V:1
"G"B2 "C"G3/2E/2 "G"D3B,| DE FG "D"B2 A2| A2 A3/2^G/2 A3A| "G"B=G "A7"G3/2E/2 "D"D2z2| "G"B2 "C"G3/2E/2 "G"D3B,| DE FG "D"B2 A2| "D7"c2 B3/2A/2 "G"BG "C"GE| "G/D"D2 "D7"F2 "G"G2z2 || "G"D4 G2 F2| "C"F3/2E/2 E3/2E/2 E4| "A"E4 A2 "A7"G2| "D"G3/2F/2 F3/2F/2 F2z2| DD EF "G"G3/2G/2 GG| "D"B2 A2 "G"c2 "G7"Bd| "C"d2 cA "G/D"G2 "D"F2| A4 "G"G2z2|]
w:1.~Eis os Mi-lhÃµes que,em tre-vas tÃ£o me-do-nhas Ja-zem per-di-dos sem o Sal-va-dor! Quem lhes i-rÃ¡ as no-vas pro-cla-man-do, Que Deus, em Cris-to, sal-vao pe-ca-dor?  'To-doo po-der o Pai me deu Na ter-ra, bem as-sim no cÃ©u! I-de, pois, a-nun-ci-ai o e-van-ge-lho, E sem-preEu es-tou con-vos-co!'
w:2.~Por-tas a-ber-tas, eis por to-doo mun-do! Ser-vos, er-guei-vos, ei-aa-van-tean-dai! Cren-tes em Cris-to,u-ni as vos-sas fo-rÃ§as, Daes-cra-vi-dÃ£o os po-vos li-ber-tai!
w:3.~'Oh! vin-dea mim!' a voz di-vi-na cla-ma, 'Vin-de' cla-mai em no-me de Je-sus! Que pra sal-var-nos do cas-ti-goe-ter-no, Seu san-gue der-ra-mou por nÃ³s na cruz.
w:4.~Ã“ Deus, a-pres-sao di-a tÃ£o glo-rio-so, Em queos re-mi-dos to-dos seu-ni-rÃ£o Num co-roex-cel-so, san-to, ju-bi-lo-so, Pra to-doo sem-pre glÃ³-riaa Ti da-rÃ£o!
W:
W:
W:1. Eis os MilhÃµes que, em trevas tÃ£o medonhas
W:Jazem perdidos sem o Salvador!
W:Quem lhes irÃ¡ as novas proclamando,
W:Que Deus, em Cristo, salva o pecador?
W:
W:(Estribilho)
W:'Todo o poder o Pai me deu
W:Na terra, bem assim no cÃ©u!
W:Ide, pois, anunciai o evangelho,
W:E sempre Eu estou convosco!'
W:
W:2. Portas abertas, eis por todo o mundo!
W:Servos, erguei-vos, eia avante andai!
W:Crentes em Cristo, uni as vossas forÃ§as,
W:Da escravidÃ£o os povos libertai!
W:
W:
W:
W:3. 'Oh! vinde a mim!' a voz divina clama,
W:'Vinde' clamai em nome de Jesus!
W:Que pra salvar-nos do castigo eterno,
W:Seu sangue derramou por nÃ³s na cruz.
W:
W:4. Ã“Â“Deus, apressa o dia tÃ£o glorioso,
W:Em que os remidos todos se unirÃ£o
W:Num coro excelso, santo, jubiloso,
W:Pra todo o sempre glÃ³ria a Ti darÃ£o!
W:
W:

